X:84
T:Eavesdropper, The
M:6/8
L:1/8
Q:120
R:Treble Jig (Key of A)
K:Amaj
"A"E2c cBA | cee ecA | "D"dff ecA | "E"cBB BAF |
"A"E2c cBA | cee ecA | "D"dff ecB |1"E"BAG "A"A2B :|2 "E"BAG "A"Ace |:
"A"~a3 bge | "E"fea ecA | "D"dff ecA | "E"cBB Bce | "A"~a3 bge |
"E"fea ecA | "D"dff ecB |1 "E"BAG Ace :|2 "E"BAG "A" A2F |]
